!!!OTL: 7b. Der Liebesapfel.
!!!ODT: 1820
!!!ARE: Europa, Mitteleuropa, Deutschland, Bonn, Kessenich
!!!SCT: E0007A
!!!TXL: @@DE
!!!YEM: Copyright 1995, estate of Helmut Schaffrath.
**kern	**text
*ICvox	*
*M2/4	*
*k[f#c#g#]	*
*A:	*
!LO:TX:a:t=Mäßig bewegt.	!
!LO:TX:a:t=Mündlich aus Keſſenich bei Bonn. 1820.	!
{8e	Jch
=1	=1
8a	gieng'
8e	mal
8a	ü-
8b	-ber
=2	=2
4cc#	einen
8ddL	Bun-
8cc#J	.
=3	=3
4b	-gert,
8r}	.
{8e	Jch
=4	=4
8a	gieng'
8e	mal
8a	ü-
8b	-ber
=5	=5
4cc#	einen
8ddL	Bun-
8cc#J	.
=6	=6
4b	-gert,
8r}	.
{8b	da
=7	=7
8ee	hieng
8dd	ein
8cc#	Ap-
8b	-fel
=8	=8
8.a	Val-
16b/	-de-
8a	-ra
8g#	kom-
=9	=9
8f#	-pin-
8e;}	-nen!
{4b	da
=10	=10
8ee	hieng
8dd	ein
8cc#	Ap-
8a	-fel
=11	=11
4b	blank
8cc#L	wie
8bJ	.
=12	=12
4a	Gold.
8r}	.
==	==
!!!AGN: Sage, Maerchen -, Zauber - Lied, Ballade ?
!!!ONB: ESAC (Essen Associative Code) Database: ERK1
!!!AMT: simple duple
!!!AIN: vox
!!!EED: Helmut Schaffrath
!!!EEV: 1.0
!!!GTL: Nachtklaenge der Goettersage (Zaubermaeren)
!!!URL-scan: https://rosdok.uni-rostock.de/mcrviewer/recordIdentifier/rosdok_ppn745146120/iview2/phys_0089.iview2?x=-4.404412318552431&y=778.0772565701627&scale=0.645690413860662&rotation=0&layout=singlePageLayout&logicalDiv=log_0009
!!!ENC: Anna Maria Matuszewska
!!!EEV: 2024/22/11
*-	*-
